static/assets/images/networks/fantom-mono.svg

<svg width="154" height="256" viewBox="0 0 154 256" fill="none" xmlns="http://www.w3.org/2000/svg">
<path fill-rule="evenodd" clip-rule="evenodd" d="M92.4 88.7638L138.6 61.7487V115.779L92.4 88.7638ZM138.6 204.543L77 240.563L15.4 204.543V141.508L77 177.528L138.6 141.508V204.543ZM15.4 61.7487L61.6 88.7638L15.4 115.779V61.7487ZM84.7 101.628L130.9 128.643L84.7 155.658V101.628ZM69.3 155.658L23.1 128.643L69.3 101.628V155.658ZM130.9 48.8844L77 79.7588L23.1 48.8844L77 16.7236L130.9 48.8844ZM0 43.7387V212.261L77 256L154 212.261V43.7387L77 0L0 43.7387Z" fill="black"/>
</svg>

<svg xmlns="http://www.w3.org/2000/svg" fill="none" viewBox="0 0 154 256"><path fill="#000" fill-rule="evenodd" d="m92.4 88.764 46.2-27.015v54.03zm46.2 115.779L77 240.563l-61.6-36.02v-63.035l61.6 36.02 61.6-36.02zM15.4 61.749l46.2 27.015-46.2 27.015zm69.3 39.879 46.2 27.015-46.2 27.015zm-15.4 54.03-46.2-27.015 46.2-27.015zm61.6-106.774L77 79.76 23.1 48.884 77 16.724zM0 43.74v168.52L77 256l77-43.739V43.739L77 0z" clip-rule="evenodd"/></svg>
